src/pos-icons/video-off.svg

<svg height="24" viewBox="0 0 24 24" width="24" xmlns="http://www.w3.org/2000/svg"><path d="m3.27 2-1.27 1.27 2.73 2.73h-.73a1 1 0 0 0 -1 1v10a1 1 0 0 0 1 1h12c.2 0 .39-.08.54-.18l3.19 3.18 1.27-1.27m0-13.23-4 4v-3.5a1 1 0 0 0 -1-1h-6.18l11.18 11.18z"/></svg>

<?xml version="1.0" encoding="UTF-8"?><!DOCTYPE svg PUBLIC "-//W3C//DTD SVG 1.1//EN" "http://www.w3.org/Graphics/SVG/1.1/DTD/svg11.dtd"><svg xmlns="http://www.w3.org/2000/svg" xmlns:xlink="http://www.w3.org/1999/xlink" version="1.1" id="mdi-video-off" width="24" height="24" viewBox="0 0 24 24"><path d="M3.27,2L2,3.27L4.73,6H4A1,1 0 0,0 3,7V17A1,1 0 0,0 4,18H16C16.2,18 16.39,17.92 16.54,17.82L19.73,21L21,19.73M21,6.5L17,10.5V7A1,1 0 0,0 16,6H9.82L21,17.18V6.5Z" /></svg>
